Gruvbox-Plus-Dark/actions/16/view-certificate.svg

<svg width="16" height="16" version="1.1" viewBox="0 0 16 16" xmlns="http://www.w3.org/2000/svg">
  <defs>
    <style type="text/css">.ColorScheme-Text { color:#ebdbb2; } .ColorScheme-Highlight { color:#458588; }</style>
  </defs>
  <path class="ColorScheme-Text" d="m0 1v14c5.333-2e-3 10.67 0.0059 16 0.0039v-14c-5.333 0.001906-10.67-0.0059-16-0.0039zm9 2h6v1h-6zm-4.5 1c0.831 0 1.5 0.669 1.5 1.5v1.5h1v3h-5v-3h1v-1.5c0-0.831 0.669-1.5 1.5-1.5zm0 1c-0.277 0-0.5 0.223-0.5 0.5v1.5h1v-1.5c0-0.277-0.223-0.5-0.5-0.5zm4.5 1h6v1h-6zm0 3h6v1h-6z" fill="currentColor"/>
</svg>

<svg xmlns="http://www.w3.org/2000/svg" width="16" height="16" viewBox="0 0 16 16">
 <defs>
  <style id="current-color-scheme" type="text/css">
   .ColorScheme-Text { color:#ebdbb2; } .ColorScheme-Highlight { color:#458588; }
  </style>
 </defs>
 <path style="fill:currentColor" class="ColorScheme-Text" d="M 0 1 L 0 15 C 5.3333 14.998 10.667 15.005906 16 15.003906 L 16 1.0039062 C 10.667 1.0058063 5.333 0.998 0 1 z M 9 3 L 15 3 L 15 4 L 9 4 L 9 3 z M 3.5 4 C 4.331 4 5 4.669 5 5.5 L 5 7 L 6 7 L 6 10 L 1 10 L 1 7 L 2 7 L 2 5.5 C 2 4.669 2.669 4 3.5 4 z M 3.5 5 C 3.223 5 3 5.223 3 5.5 L 3 7 L 4 7 L 4 5.5 C 4 5.223 3.777 5 3.5 5 z M 9 6 L 15 6 L 15 7 L 9 7 L 9 6 z M 9 9 L 15 9 L 15 10 L 9 10 L 9 9 z"/>
</svg>
